{"type":"map","version":"1.10","tiledversion":"1.10.2","orientation":"orthogonal","renderorder":"right-down","width":48,"height":36,"tilewidth":64,"tileheight":64,"infinite":false,"nextlayerid":6,"nextobjectid":20,"tilesets":[{"firstgid":1,"name":"city-tileset","image":"../tiles/city-tileset.png","imagewidth":512,"imageheight":192,"tilewidth":64,"tileheight":64,"tilecount":24,"columns":8,"margin":0,"spacing":0,"tiles":[{"id":0,"type":"grass","properties":[]},{"id":1,"type":"grass-alt","properties":[]},{"id":2,"type":"road","properties":[]},{"id":3,"type":"road-line-h","properties":[]},{"id":4,"type":"road-line-v","properties":[]},{"id":5,"type":"sidewalk","properties":[]},{"id":6,"type":"wall-a","properties":[{"name":"collides","type":"bool","value":true}]},{"id":7,"type":"wall-b","properties":[{"name":"collides","type":"bool","value":true}]},{"id":8,"type":"roof","properties":[{"name":"collides","type":"bool","value":true}]},{"id":9,"type":"fence","properties":[{"name":"collides","type":"bool","value":true}]},{"id":10,"type":"tree","properties":[{"name":"collides","type":"bool","value":true}]},{"id":11,"type":"water","properties":[{"name":"collides","type":"bool","value":true}]},{"id":12,"type":"construction","properties":[{"name":"collides","type":"bool","value":true}]},{"id":13,"type":"depot-floor","properties":[]},{"id":14,"type":"depot-wall","properties":[{"name":"collides","type":"bool","value":true}]},{"id":15,"type":"field","properties":[]},{"id":16,"type":"road-edge-h","properties":[]},{"id":17,"type":"road-edge-v","properties":[]},{"id":18,"type":"roof-blue","properties":[{"name":"collides","type":"bool","value":true}]},{"id":19,"type":"roof-red","properties":[{"name":"collides","type":"bool","value":true}]},{"id":20,"type":"flower","properties":[]},{"id":21,"type":"gravel","properties":[]},{"id":22,"type":"marker","properties":[]},{"id":23,"type":"empty","properties":[]}]}],"layers":[{"id":1,"name":"Boden","type":"tilelayer","width":48,"height":36,"x":0,"y":0,"opacity":1,"visible":true,"data":[1,1,1,1,1,1,1,1,1,1,1,1,1,1,1,1,1,1,1,1,1,1,1,1,1,1,1,1,1,1,1,1,1,1,1,1,1,1,1,1,1,1,1,1,1,16,16,16,1,1,1,1,1,1,1,1,1,1,1,1,1,1,1,1,1,1,1,1,1,1,1,1,1,1,1,1,1,1,1,1,1,1,1,1,1,1,1,1,1,1,1,1,1,16,16,16,1,1,1,6,6,6,6,6,6,6,6,6,6,6,6,6,6,6,6,6,6,6,6,6,6,6,6,6,6,6,6,6,6,6,6,6,6,6,6,6,6,6,6,6,6,16,16,16,1,1,6,3,3,3,3,3,3,3,3,3,3,3,3,3,3,3,3,3,3,3,3,3,3,3,3,3,3,3,3,3,3,3,3,3,3,3,3,3,3,3,3,3,3,16,16,16,1,1,6,3,3,3,3,3,3,3,3,3,3,3,3,3,3,3,3,3,3,3,3,3,3,3,3,3,3,3,3,3,3,3,3,3,3,3,3,3,3,3,3,3,3,16,16,16,1,1,6,3,3,3,3,3,3,3,3,3,3,3,3,3,3,3,3,3,3,3,3,3,3,3,3,3,3,3,3,3,3,3,3,3,3,3,3,3,3,3,3,3,3,16,16,16,1,1,6,3,3,3,6,6,6,6,6,6,6,6,6,6,6,3,3,3,6,6,6,6,6,6,6,6,6,6,6,3,3,3,6,6,6,6,6,6,6,6,3,3,3,16,16,16,1,1,6,3,3,3,6,1,1,1,1,1,1,1,1,1,6,3,3,3,6,1,1,1,1,1,1,1,1,1,6,3,3,3,6,1,1,1,1,1,1,6,3,3,3,16,16,16,1,1,6,3,3,3,6,1,1,1,1,1,1,1,1,1,6,3,3,3,6,1,1,1,1,1,1,1,1,1,6,3,3,3,6,1,1,1,1,1,1,6,3,3,3,16,16,16,1,1,6,3,3,3,6,1,1,1,1,1,1,1,1,14,14,3,3,3,6,1,1,1,1,1,1,1,1,1,6,3,3,3,6,1,1,1,1,1,1,6,3,3,3,16,16,16,1,1,6,3,3,3,6,1,1,1,1,1,1,1,1,14,14,3,3,3,6,1,1,1,1,1,1,1,1,1,6,3,3,3,6,1,1,1,1,1,1,6,3,3,3,16,16,16,1,1,6,3,3,3,6,21,1,1,1,1,1,1,1,14,14,3,3,3,6,1,1,1,1,1,1,1,1,1,6,3,3,3,6,1,1,1,1,1,1,6,3,3,3,16,16,16,1,1,6,3,3,3,6,1,1,1,1,1,1,1,1,1,6,3,3,3,6,1,1,1,1,1,1,1,1,1,6,3,3,3,6,1,1,1,21,1,1,6,3,3,3,16,16,16,1,1,6,3,3,3,6,22,22,22,22,22,22,22,22,1,6,3,3,3,6,1,1,1,1,1,1,1,1,1,6,3,3,3,6,1,1,1,1,1,1,6,3,3,3,16,16,16,1,1,6,3,3,3,6,6,6,6,6,6,6,6,6,6,6,3,3,3,6,6,6,6,6,6,6,6,6,6,6,3,3,3,6,6,6,6,6,6,6,6,3,3,3,16,16,16,1,1,6,3,3,3,3,3,3,3,3,3,3,3,3,3,3,3,3,3,3,3,3,3,3,3,3,3,3,3,3,3,3,3,3,3,3,3,3,3,3,3,3,3,3,16,16,16,1,1,6,3,3,3,3,3,3,3,3,3,3,3,3,3,3,3,3,3,3,3,3,3,3,3,3,3,3,3,3,3,3,3,3,3,3,3,3,3,3,3,3,3,3,16,16,16,1,1,6,3,3,3,3,3,3,3,3,3,3,3,3,3,3,3,3,3,3,3,3,3,3,3,3,3,3,3,3,3,3,3,3,3,3,3,3,3,3,3,3,3,3,16,16,16,1,1,6,3,3,3,6,6,6,6,6,6,6,6,6,6,6,3,3,3,6,6,6,6,6,6,6,6,6,6,6,3,3,3,6,6,6,6,6,6,6,6,3,3,3,16,16,16,1,1,6,3,3,3,6,1,1,1,1,1,1,1,1,1,6,3,3,3,6,1,1,1,1,1,1,1,1,1,6,3,3,3,6,1,1,1,1,1,1,6,3,3,3,16,16,16,1,1,6,3,3,3,6,1,1,1,1,1,1,1,1,1,6,3,3,3,6,1,1,1,1,1,1,1,1,21,6,3,3,3,6,1,1,1,1,1,1,6,3,3,3,16,16,16,1,1,6,3,3,3,6,1,1,1,1,1,1,1,1,1,6,3,3,3,6,1,1,1,1,1,1,1,21,21,6,3,3,3,6,1,1,1,1,1,1,6,3,3,3,16,16,16,1,1,6,3,3,3,6,1,1,1,1,1,1,1,1,1,6,3,3,3,6,1,21,1,12,12,12,1,1,1,6,3,3,3,6,1,1,1,1,1,1,6,3,3,3,16,16,16,1,1,6,3,3,3,6,1,1,1,1,1,1,1,1,1,6,3,3,3,6,1,1,1,12,12,12,1,1,1,6,3,3,3,6,1,1,1,1,1,1,6,3,3,3,16,16,16,1,1,6,3,3,3,6,1,1,1,1,1,1,1,1,1,6,3,3,3,6,1,1,21,1,1,1,1,1,1,6,3,3,3,6,1,1,1,1,1,1,6,3,3,3,16,16,16,1,1,6,3,3,3,6,1,1,1,1,1,1,1,1,1,6,3,3,3,6,1,1,1,1,1,21,1,1,1,6,3,3,3,6,1,1,1,1,1,1,6,3,3,3,16,16,16,1,1,6,3,3,3,6,6,6,6,6,6,6,6,6,6,6,3,3,3,6,6,6,6,6,6,6,6,6,6,6,3,3,3,6,6,6,6,6,6,6,6,3,3,3,16,16,16,1,1,6,3,3,3,3,3,3,3,3,3,3,3,3,3,3,3,3,3,3,3,3,3,3,3,3,3,3,3,3,3,3,3,3,3,3,3,3,3,3,3,3,3,3,16,16,16,1,1,6,3,3,3,3,3,3,3,3,3,3,3,3,3,3,3,3,3,3,3,3,3,3,3,3,3,3,3,3,3,3,3,3,3,3,3,3,3,3,3,3,3,3,16,16,16,1,1,6,3,3,3,3,3,3,3,3,3,3,3,3,3,3,3,3,3,3,3,3,3,3,3,3,3,3,3,3,3,3,3,3,3,3,3,3,3,3,3,3,3,3,16,16,16,1,1,1,6,6,6,6,6,6,6,6,6,6,6,6,6,6,6,6,6,6,6,6,6,6,6,6,6,6,6,6,6,6,6,6,6,6,6,6,6,6,6,6,6,6,16,16,16,16,16,16,16,16,16,16,16,16,16,16,16,16,16,16,16,16,16,16,16,16,16,16,16,16,16,16,16,16,16,16,16,16,16,16,16,16,16,16,16,16,16,16,16,16,16,16,16,16,16,16,16,16,16,16,16,16,16,16,16,16,16,16,16,16,16,16,16,16,16,16,16,16,16,16,16,16,16,16,16,16,16,16,16,16,16,16,16,16,16,16,16,16,16,16,16,16,16,16,16,16,16,16,16,16,16,16,16,16,16,16,16,16,16,16,16,16,16,16,16,16,16,16,16,16,16,16,16,16,16,16,16,16,16,16,16,16,16,16,16,16,16,16,16,16,16,16,16,16,16,16,16,16,16,16,16,16,16,16,16,16,16,16,16,16,16,16,16,16,16,16,16,16,16,16,16,16,16,16,16,16,16,16,16,16,16,16,16,16,16,16,16,16,16,16,16,16,16,16,16,16,16,16,16,16,16,16,16,16,16,16,16,16,16,16,16,16,16,16,16,16,16,16,16,16,16,16,16,16,16,16,16,16,16,16,16,16,16,16,16]},{"id":2,"name":"Markierung","type":"tilelayer","width":48,"height":36,"x":0,"y":0,"opacity":1,"visible":true,"data":[0,0,0,0,0,0,0,0,0,0,0,0,0,0,0,0,0,0,0,0,0,0,0,0,0,0,0,0,0,0,0,0,0,0,0,0,0,0,0,0,0,0,0,0,0,0,0,0,0,0,0,0,0,0,0,0,0,0,0,0,0,0,0,0,0,0,0,0,0,0,0,0,0,0,0,0,0,0,0,0,0,0,0,0,0,0,0,0,0,0,0,0,0,0,0,0,0,0,0,0,0,0,0,0,0,0,0,0,0,0,0,0,0,0,0,0,0,0,0,0,0,0,0,0,0,0,0,0,0,0,0,0,0,0,0,0,0,0,0,0,0,0,0,0,0,0,0,0,0,0,0,0,0,0,0,0,0,0,0,0,0,0,0,0,0,0,0,0,0,0,0,0,0,0,0,0,0,0,0,0,0,0,0,0,0,0,0,0,0,0,0,0,0,0,0,0,0,0,4,0,4,0,4,0,4,0,4,0,4,0,0,0,4,0,4,0,4,0,4,0,4,0,4,0,0,0,4,0,4,0,4,0,4,0,0,0,0,0,0,0,0,0,0,0,0,0,0,0,0,0,0,0,0,0,0,0,0,0,0,0,0,0,0,0,0,0,0,0,0,0,0,0,0,0,0,0,0,0,0,0,0,0,0,0,0,0,0,0,0,0,0,0,5,0,0,0,0,0,0,0,0,0,0,0,0,0,5,0,0,0,0,0,0,0,0,0,0,0,0,0,5,0,0,0,0,0,0,0,0,0,0,5,0,0,0,0,0,0,0,0,0,0,0,0,0,0,0,0,0,0,0,0,0,0,0,0,0,0,0,0,0,0,0,0,0,0,0,0,0,0,0,0,0,0,0,0,0,0,0,0,0,0,0,0,0,0,0,0,5,0,0,0,0,0,0,0,0,0,0,0,0,0,5,0,0,0,0,0,0,0,0,0,0,0,0,23,23,23,0,0,0,0,0,0,0,0,0,5,0,0,0,0,0,0,0,0,0,0,0,0,0,0,0,0,0,0,0,0,0,0,0,0,0,0,0,0,0,0,0,0,0,0,0,23,23,23,0,0,0,0,0,0,0,0,0,0,0,0,0,0,0,0,0,0,5,0,0,0,0,0,0,0,0,0,0,0,0,0,5,0,0,0,0,0,0,0,0,0,0,0,0,23,23,23,0,0,0,0,0,0,0,0,0,5,0,0,0,0,0,0,0,0,0,0,0,0,0,0,0,0,0,0,0,0,0,0,0,0,0,0,0,0,0,0,0,0,0,0,0,0,0,0,0,0,0,0,0,0,0,0,0,0,0,0,0,0,0,0,0,0,5,0,0,0,0,0,0,0,0,0,0,0,0,0,5,0,0,0,0,0,0,0,0,0,0,0,0,0,5,0,0,0,0,0,0,0,0,0,0,5,0,0,0,0,0,0,0,0,0,0,0,0,0,0,0,0,0,0,0,0,0,0,0,0,0,0,0,0,0,0,0,0,0,0,0,0,0,0,0,0,0,0,0,0,0,0,0,0,0,0,0,0,0,0,0,0,5,0,0,0,0,0,0,0,0,0,0,0,0,0,5,0,0,0,0,0,0,0,0,0,0,0,0,0,5,0,0,0,0,0,0,0,0,0,0,5,0,0,0,0,0,0,0,0,0,0,0,0,0,0,0,0,0,0,0,0,0,0,0,0,0,0,0,0,0,0,0,0,0,0,0,0,0,0,0,0,0,0,0,0,0,0,0,0,0,0,0,0,0,0,0,0,0,0,4,0,4,0,4,0,4,0,4,0,4,0,0,0,4,0,4,0,4,0,4,0,4,0,4,0,0,0,4,0,4,0,4,0,4,0,0,0,0,0,0,0,0,0,0,0,0,0,0,0,0,0,0,0,0,0,0,0,0,0,0,0,0,0,0,0,0,0,0,0,0,0,0,0,0,0,0,0,0,0,0,0,0,0,0,0,0,0,0,0,0,0,0,0,5,0,0,0,0,0,0,0,0,0,0,0,0,0,5,0,0,0,0,0,0,0,0,0,0,0,0,0,5,0,0,0,0,0,0,0,0,0,0,5,0,0,0,0,0,0,0,0,0,0,0,0,0,0,0,0,0,0,0,0,0,0,0,0,0,0,0,0,0,0,0,0,0,0,0,0,0,0,0,0,0,0,0,0,0,0,0,0,0,0,0,0,0,0,0,0,5,0,0,0,0,0,0,0,0,0,0,0,0,0,5,0,0,0,0,0,0,0,0,0,0,0,0,0,5,0,0,0,0,0,0,0,0,0,0,5,0,0,0,0,0,0,0,0,0,0,0,0,0,0,0,0,0,0,0,0,0,0,0,0,0,0,0,0,0,0,0,0,0,0,0,0,0,0,0,0,0,0,0,0,0,0,0,0,0,0,0,0,0,0,0,0,5,0,0,0,0,0,0,0,0,0,0,0,0,0,5,0,0,0,0,0,0,0,0,0,0,0,0,0,5,0,0,0,0,0,0,0,0,0,0,5,0,0,0,0,0,0,0,0,0,0,0,0,0,0,0,0,0,0,0,0,0,0,0,0,0,0,0,0,0,0,0,0,0,0,0,0,0,0,0,0,0,0,0,0,0,0,0,0,0,0,0,0,0,0,0,0,5,0,0,0,0,0,0,0,0,0,0,0,0,0,5,0,0,0,0,0,0,0,0,0,0,0,0,0,5,0,0,0,0,0,0,0,0,0,0,5,0,0,0,0,0,0,0,0,0,0,0,0,0,0,0,0,0,0,0,0,0,0,0,0,0,0,0,0,0,0,0,0,0,0,0,0,0,0,0,0,0,0,0,0,0,0,0,0,0,0,0,0,0,0,0,0,5,0,0,0,0,0,0,0,0,0,0,0,0,0,5,0,0,0,0,0,0,0,0,0,0,0,0,0,5,0,0,0,0,0,0,0,0,0,0,5,0,0,0,0,0,0,0,0,0,0,0,0,0,0,0,0,0,0,0,0,0,0,0,0,0,0,0,0,0,0,0,0,0,0,0,0,0,0,0,0,23,23,23,0,0,0,0,0,0,0,0,0,0,0,0,0,0,0,4,0,4,0,4,0,4,0,4,0,4,0,0,0,4,0,4,0,4,0,4,0,4,0,4,0,0,0,4,0,23,23,23,0,4,0,0,0,0,0,0,0,0,0,0,0,0,0,0,0,0,0,0,0,0,0,0,0,0,0,0,0,0,0,0,0,0,0,0,0,0,0,0,0,0,0,0,0,23,23,23,0,0,0,0,0,0,0,0,0,0,0,0,0,0,0,0,0,0,0,0,0,0,0,0,0,0,0,0,0,0,0,0,0,0,0,0,0,0,0,0,0,0,0,0,0,0,0,0,0,0,0,0,0,0,0,0,0,0,0,0,0,0,0,0,0,0,0,0,0,0,0,0,0,0,0,0,0,0,0,0,0,0,0,0,0,0,0,0,0,0,0,0,0,0,0,0,0,0,0,0,0,0,0,0,0,0,0,0,0,0,0,0,0,0,0,0,0,0,0,0,0,0,0,0,0,0,0,0,0,0,0,0,0,0,0,0,0,0,0,0,0,0,0,0,0,0,0,0,0,0,0,0,0,0,0,0,0,0,0,0,0,0,0,0,0,0,0,0,0,0,0,0,0,0,0,0,0,0,0,0,0,0,0,0,0,0,0,0,0,0,0,0,0,0,0,0,0,0,0,0,0,0,0,0,0,0,0,0,0,0,0,0,0,0,0,0,0,0,0,0,0,0,0,0,0,0,0,0,0,0,0,0,0,0,0,0,0,0,0,0,0,0,0,0,0,0,0,0,0,0,0,0,0,0,0,0,0,0,0,0,0,0,0,0,0,0,0,0,0,0,0,0,0,0,0,0,0,0,0,0,0,0,0,0,0,0,0,0,0,0,0,0,0,0,0,0,0]},{"id":3,"name":"Gebaeude","type":"tilelayer","width":48,"height":36,"x":0,"y":0,"opacity":1,"visible":true,"data":[0,0,0,0,0,0,0,0,0,0,0,0,0,0,0,0,0,0,0,0,0,0,0,0,0,0,0,0,0,0,0,0,0,0,0,0,0,0,0,0,0,0,0,0,0,0,0,0,0,0,0,0,0,0,0,0,0,0,0,0,0,0,0,0,0,0,0,0,0,0,0,0,0,0,0,0,0,0,0,0,0,0,0,0,0,0,0,0,0,0,0,0,0,0,0,0,0,0,0,0,0,0,0,0,0,0,0,0,0,0,0,0,0,0,0,0,0,0,0,0,0,0,0,0,0,0,0,0,0,0,0,0,0,0,0,0,0,0,0,0,0,0,0,0,0,0,0,0,0,0,0,0,0,0,0,0,0,0,0,0,0,0,0,0,0,0,0,0,0,0,0,0,0,0,0,0,0,0,0,0,0,0,0,0,0,0,0,0,0,0,0,0,0,0,0,0,0,0,0,0,0,0,0,0,0,0,0,0,0,0,0,0,0,0,0,0,0,0,0,0,0,0,0,0,0,0,0,0,0,0,0,0,0,0,0,0,0,0,0,0,0,0,0,0,0,0,0,0,0,0,0,0,0,0,0,0,0,0,0,0,0,0,0,0,0,0,0,0,0,0,0,0,0,0,0,0,0,0,0,0,0,0,0,0,0,0,0,0,0,0,0,0,0,0,0,0,0,0,0,0,0,0,0,0,0,0,0,0,0,0,0,0,0,0,0,0,0,0,0,0,0,0,0,0,0,0,0,0,0,0,0,0,0,0,0,0,0,0,0,0,0,0,0,0,19,19,19,19,19,19,19,0,0,0,0,0,0,0,9,9,9,9,0,20,20,20,0,0,0,0,0,0,20,20,20,20,20,0,0,0,0,0,0,0,0,0,0,0,0,0,0,11,19,19,19,19,19,19,19,0,0,0,0,0,0,0,9,9,9,9,0,20,20,20,0,0,0,0,0,0,20,20,20,20,20,0,0,0,0,0,0,0,0,0,0,0,0,0,0,11,19,19,19,19,19,19,19,0,0,0,0,0,0,0,9,9,9,9,0,20,20,20,0,0,0,0,0,0,8,8,8,8,8,0,0,0,0,0,0,0,0,0,0,0,0,0,0,11,19,19,19,19,19,19,19,0,0,0,0,0,0,0,8,8,8,8,0,8,8,8,0,0,0,0,0,11,0,0,0,11,11,0,0,0,0,0,0,0,0,0,0,0,0,0,0,0,19,19,19,19,19,19,19,0,0,0,0,0,0,0,9,9,9,9,9,9,9,0,0,0,0,0,0,0,11,0,0,0,0,0,0,0,0,0,0,0,0,0,0,0,0,0,0,0,15,15,15,15,15,15,15,0,0,0,0,0,0,0,9,9,9,9,9,9,9,0,0,0,0,0,0,11,0,0,0,11,0,0,0,0,0,0,0,0,0,0,0,0,0,0,0,0,0,0,0,0,0,0,0,0,0,0,0,0,0,0,8,8,8,8,8,8,8,0,0,0,0,0,0,0,0,0,0,0,0,0,0,0,0,0,0,0,0,0,0,0,0,0,0,0,0,0,0,0,0,0,0,0,0,0,0,0,0,0,0,0,0,0,0,0,0,0,0,0,0,0,0,0,0,0,0,0,0,0,0,0,0,0,0,0,0,0,0,0,0,0,0,0,0,0,0,0,0,0,0,0,0,0,0,0,0,0,0,0,0,0,0,0,0,0,0,0,0,0,0,0,0,0,0,0,0,0,0,0,0,0,0,0,0,0,0,0,0,0,0,0,0,0,0,0,0,0,0,0,0,0,0,0,0,0,0,0,0,0,0,0,0,0,0,0,0,0,0,0,0,0,0,0,0,0,0,0,0,0,0,0,0,0,0,0,0,0,0,0,0,0,0,0,0,0,0,0,0,0,0,0,0,0,0,0,0,0,0,0,0,0,0,0,0,0,0,0,0,0,0,0,0,0,0,0,0,0,0,0,0,0,0,0,0,0,0,0,0,0,0,0,0,0,0,0,0,0,0,0,0,0,0,0,0,0,0,0,0,0,0,0,0,0,0,0,0,0,0,0,0,0,0,0,0,0,0,0,0,0,0,0,0,0,0,0,9,9,9,0,20,20,20,0,0,0,0,0,0,0,0,0,0,0,0,0,0,0,0,0,0,0,0,9,9,9,9,9,9,0,0,0,0,0,0,0,0,0,0,0,0,0,0,0,9,9,9,0,20,20,20,0,0,0,0,0,0,0,11,0,0,11,0,11,0,0,0,0,0,0,0,9,9,9,9,9,9,0,0,0,0,0,0,0,0,0,0,0,0,0,0,0,9,9,9,0,20,20,20,0,0,13,13,13,0,0,0,11,0,11,0,11,0,0,0,0,0,0,0,7,7,7,7,7,7,0,0,0,0,0,0,0,0,0,0,0,0,0,0,0,8,8,8,0,8,8,8,0,0,13,13,13,0,0,0,11,12,12,12,0,11,0,0,0,0,0,0,0,0,0,0,0,0,0,0,0,0,0,0,0,0,0,0,0,0,0,0,0,0,0,0,0,0,0,0,0,0,0,0,0,0,11,11,0,12,12,12,0,0,0,0,0,0,0,0,20,20,20,0,10,10,0,0,0,0,0,0,0,0,0,0,0,0,0,0,0,9,9,9,9,9,9,9,0,0,0,0,0,0,11,0,0,0,0,11,11,11,11,0,0,0,0,0,20,20,20,0,10,10,0,0,0,0,0,0,0,0,0,0,0,0,0,0,0,8,8,8,8,8,8,8,0,0,0,0,0,0,0,0,0,0,11,0,0,11,11,0,0,0,0,0,7,7,7,0,10,10,0,0,0,0,0,0,0,0,0,0,0,0,0,0,0,0,0,0,0,0,0,0,0,0,0,0,0,0,0,0,0,0,0,0,0,0,0,0,0,0,0,0,0,0,0,0,0,0,0,0,0,0,0,0,0,0,0,0,0,0,0,0,0,0,0,0,0,0,0,0,0,0,0,0,0,0,0,0,0,0,0,0,0,0,0,0,0,0,0,0,0,0,0,0,0,0,0,0,0,0,0,0,0,0,0,0,0,0,0,0,0,0,0,0,0,0,0,0,0,0,0,0,0,0,0,0,0,0,0,0,0,0,0,0,0,0,0,0,0,0,0,0,0,0,0,0,0,0,0,0,0,0,0,0,0,0,0,0,0,0,0,0,0,0,0,0,0,0,0,0,0,0,0,0,0,0,0,0,0,0,0,0,0,0,0,0,0,0,0,0,0,0,0,0,0,0,0,0,0,0,0,0,0,0,0,0,0,0,0,0,0,0,0,0,0,0,0,0,0,0,0,0,0,0,0,0,0,0,0,0,0,0,0,0,0,0,0,0,0,0,0,0,0,0,0,0,0,0,0,0,0,0,0,0,0,0,0,0,0,0,0,0,0,0,0,0,0,0,0,0,0,0,0,0,0,0,0,0,0,0,0,0,0,0,0,0,0,0,0,0,0,0,0,0,0,0,0,0,0,0,0,0,0,0,0,0,0,0,0,0,0,0,0,0,0,0,0,0,0,0,0,0,0,0,0,0,0,0,0,0,0,0,0,0,0,0,0,0,0,0,0,0,0,0,0,0,0,0,0,0,0,0,0,0,0,0,0,0,0,0,0,0,0,0,0,0,0,0,0,0,0,0,0,0,0,0,0,0,0,0,0,0,0,0,0,0,0,0,0,0,0,0,0,0,0,0,0,0,0,0,0,0,0,0,0,0,0,0,0,0,0,0,0,0,0,0,0,0,0,0,0,0,0,0,0,0,0,0,0,0,0,0,0,0,0,0,0,0,0,0,0,0,0,0,0,0,0,0,0,0,0,0,0,0,0,0,0,0,0,0,0,0,0,0,0,0,0,0,0,0,0,0,0,0,0,0,0,0,0,0,0,0,0,0,0,0,0]},{"id":4,"name":"Objekte","type":"objectgroup","x":0,"y":0,"opacity":1,"visible":true,"draworder":"topdown","objects":[{"id":10,"name":"spawn-depot","type":"spawn","x":992,"y":672,"width":0,"height":0,"point":true,"rotation":0},{"id":11,"name":"route-ring","type":"route","x":288,"y":288,"width":0,"height":0,"rotation":0,"polygon":[{"x":0,"y":0},{"x":2496,"y":0},{"x":2496,"y":1536},{"x":0,"y":1536}],"properties":[{"name":"sprite","type":"string","value":"civil-car-a-top"},{"name":"speed","type":"int","value":130}]},{"id":12,"name":"route-inner","type":"route","x":1184,"y":288,"width":0,"height":0,"rotation":0,"polygon":[{"x":0,"y":0},{"x":896,"y":0},{"x":896,"y":768},{"x":0,"y":768}],"properties":[{"name":"sprite","type":"string","value":"civil-car-b-top"},{"name":"speed","type":"int","value":120}]},{"id":13,"name":"route-south","type":"route","x":288,"y":1056,"width":0,"height":0,"rotation":0,"polygon":[{"x":0,"y":0},{"x":1792,"y":0},{"x":1792,"y":768},{"x":0,"y":768}],"properties":[{"name":"sprite","type":"string","value":"civil-car-c-top"},{"name":"speed","type":"int","value":140}]}]},{"id":5,"name":"Zonen","type":"objectgroup","x":0,"y":0,"opacity":1,"visible":true,"draworder":"topdown","objects":[{"id":1,"name":"unterkunft","x":960,"y":576,"width":192,"height":192,"properties":[{"name":"kind","type":"string","value":"depot"},{"name":"heading","type":"int","value":0}]},{"id":2,"name":"einsatz-storm-tree","x":2304,"y":1728,"width":192,"height":192,"properties":[{"name":"kind","type":"string","value":"mission"},{"name":"mission","type":"string","value":"storm-tree"},{"name":"heading","type":"int","value":180}]},{"id":3,"name":"einsatz-water-basement","x":1984,"y":512,"width":192,"height":192,"properties":[{"name":"kind","type":"string","value":"mission"},{"name":"mission","type":"string","value":"water-basement"},{"name":"heading","type":"int","value":270}]},{"id":4,"name":"sperrung","x":1088,"y":1344,"width":192,"height":128,"properties":[{"name":"kind","type":"string","value":"closure"}]}]}]}